!!!OTL: Mach's ebenso!
!!!OTL-incipit:DIE SONNE BLICKT MIT HELLEM SCHEIN
!!!COM: B. Widmann
!!!ARE: Europa, Mitteleuropa, Deutschland
!!!SCT: F0358
!!!YEM: Copyright 1995, estate of Helmut Schaffrath.
**kern	**text
*ICvox	*
*M4/4	*
*met(c)	*
*k[]	*
*C:	*
!LO:TX:a:t=Heiter und kraeftig.	!
{4g	1._Die
=1	=1
4a	Son-
4g	-ne
4cc/	blickt
4g	mit
=2	=2
4.ee/	bel-
8dd/	-lem
4cc/}	Schein
{4g	ſo
=3	=3
4.ff/	freund-
8ee/	-lich
8.dd/	in
16cc/	die
8.b/	Welt
16cc/	hin-
=4	=4
2dd/}	-ein,
{2ee/	ſo
=5	=5
4.dd/	freundlich
8b/	.
8.a/	in
16b/	die
8.cc/	Welt
16dd/	hin-
=6	=6
2b/	-ein.
4r}	.
{4g	Mach's
=7	=7
4.dd/	e-
8cc/	-ben
4b/	ſo!
!LO:TX:a:t=Einzelne.	!
4d	Mach's
=8	=8
4.f	e-
8e	-ben
4d}	ſo!
!LO:TX:a:t=Alle.	!
{4g	Mach's
=9	=9
4.ee/	e-
8dd/	-ben
4cc/	ſo!
!LO:TX:a:t=Einzelne.	!
4e	Mach's
=10	=10
4.g	e-
8f	-ben
4e}	ſo!
!LO:TX:a:t=Alle.	!
{4g	Sei
=11	=11
2cc/	hei-
4dd/	-ter
4ee/	und
=12	=12
2a}	froh!
{(>4ff/	Sei
4dd/)	.
=13	=13
2cc/	hei-
4b/	-ter
4b/	und
=14	=14
2cc/	froh!
4r}	.
==	==
!!!AGN: Jugend - Lied, Belehrung, Optimismus
!!!ONB: ESAC (Essen Associative Code) Database: FINK
!!!AMT: simple quadruple
!!!AIN: vox
!!!EED: Helmut Schaffrath
!!!EEV: 1.0
!!!RDF**kern: >= above
!!Text: K. Enslin
!!!source: Musikalischer Hausschatz der Deutschen. Eine Sammlung von über 1000 Liedern und Gesängen mit Singstimmen und Klavierbegleitung. Leipzig, Litterarisches Verlags-Haus.
!!!page: 212
!!!ENC: Anna Maria Matuszewska
!!!EEV: 2025/03/17
*-	*-
